X:1
T:Jesus Will Let You In
T:Jesus Will Let You In
T:Aldine Silliman Kieffer
T:Aldine Silliman Kieffer, 1894
T:Public Domain Courtesy of the Cyber Hymnal™
C:Aldine Silliman Kieffer
Z:Public Domain
Z:Courtesy of the Cyber Hymnal™
%%score ( 1 2 ) 3
L:1/8
Q:1/4=110
M:4/4
K:F
V:1 treble 
V:2 treble 
V:3 bass 
V:1
 [FA]2 [FA]>[FA] [FA]2 [FA]2 | [EG]6 z2 | [EG]2 [EG]>[EG] [FA]2 [EG]2 | F8 | %4
w: 1.~Come to the Fa- ther’s|house,|Come ere the day be|gone;|
w: 2.~Look at the wear- y|way,|Look where thy feet have|trod,|
w: 3.~Haste from the fields of|sin,|Fly for thy life to-|day;|
 [FA]2 [FA]>[FA] [FA]2 [FA]2 | [EG]6 z2 | [EG]2 [EG]>[EG] [FA]2 [EG]2 | F8 || %8
w: Tem- pests are gath- ’ring|fast,|Dark- ness is com- ing|on.|
w: Find- ing no rest nor|peace,|Wan- d’ring a- way from|God.|
w: Come to our Fa- ther’s|house;|En- ter the nar- row|way.|
"^Refrain" [FB]2 [FB]>[FB] [FB] [Fd]2 [FB] | [FA] [Fc]4- [Fc]3 | [Ec] [EG]2 [EG] [EG]2 [FA]2 | %11
w: |||
w: Fly, for the tem- pest is|com- ing, *|Sweep- ing the fields of|
w: |||
 [EG]6 z2 | [FA]2 [FA]>[FA] [FA] [FA]2 [FA] | [FB] [FB]4- [FB]3 | [EG] [EG]2 [EG] [FA]2 [EG]2 | %15
w: ||||
w: sin;|Knock at the por- tals of|mer- cy, *|Je- sus will let you|
w: ||||
 F8 |] %16
w: |
w: in.|
w: |
V:2
 x8 | x8 | x8 | F8 | x8 | x8 | x8 | F8 || x8 | x8 | x8 | x8 | x8 | x8 | x8 | F8 |] %16
V:3
 [F,C]2 [F,C]>[F,C] [F,C]2 [F,C]2 | [C,C]6 z2 | [C,C]2 [C,C]>[C,C] [C,C]2 [C,B,]2 | [F,A,]8 | %4
 [F,C]2 [F,C]>[F,C] [F,C]2 [F,C]2 | [C,C]6 z2 | [C,C]2 [C,C]>[C,C] [C,C]2 [C,B,]2 | [F,A,]8 || %8
 [B,,D]2 [B,,D]>[B,,D] [B,,D] [B,,B,]2 [B,,D] | [F,C] [F,A,]4- [F,A,]3 | %10
 [C,G,] [C,C]2 [C,C] [C,C]2 [C,C]2 | [C,C]6 z2 | [F,C]2 [F,C]>[F,C] [F,C] [F,C]2 [F,C] | %13
 [B,,D] [B,,D]4- [B,,D]3 | [C,C] [C,C]2 [C,C] [C,C]2 [C,B,]2 | [F,A,]8 |] %16

